X:1
T: The Glendaruel Highlanders
C:
R:Jig
Q:180
K:A
M:6/8
L:1/16
e2c2|A2A2A2 A2B2c2|e2c2e2 f4e2|c2B2A2 f2a2f2|e6 e2f2a2|A2A2A2 A2B2c2|e2c2e2 f4e2|f2a2c2 e2d2B2|A6 A2e2c2|
A2A2A2 A2B2c2|e2c2e2 f4e2|c2B2A2 f2a2f2|e6 e2f2a2|A2A2A2 A2B2c2|e2c2e2 f4e2|f2a2c2 e2d2B2|A6 A2e2d2|
c4A2 c2e2B2|c4A2 A2c2e2|f4e2 f2a2f2|e6 e2f2a2|c4A2 c2e2B2|c4A2 A2c2e2|f2e2c2 e2d2B2|A6 A2e2d2|
c4A2 c2e2B2|c4A2 A2c2e2|f4e2 f2a2f2|e6 e2f2g2|a2c2c2 c2d2e2|f2B2B2 B4e2|f2a2c2 e2d2B2|A6 A2e2c2|
A2A2A2 A2B2c2|e2c2e2 f4e2|c2B2A2 f2a2f2|e6 e2f2a2|A2A2A2 A2B2c2|e2c2e2 f4e2|f2a2c2 e2d2B2|A6 A2e2c2|
A2A2A2 A2B2c2|e2c2e2 f4e2|c2B2A2 f2a2f2|e6 e2f2a2|A2A2A2 A2B2c2|e2c2e2 f4e2|f2a2c2 e2d2B2|A6 A2e2d2|
c4A2 c2e2B2|c4A2 A2c2e2|f4e2 f2a2f2|e6 e2f2a2|c4A2 c2e2B2|c4A2 A2c2e2|f2e2c2 e2d2B2|A6 A2e2d2|
c4A2 c2e2B2|c4A2 A2c2e2|f4e2 f2a2f2|e6 e2f2g2|a2c2c2 c2d2e2|f2B2B2 B4e2|f2a2c2 e2d2B2|A6 A2e2c2|
A2A2A2 A2B2c2|e2c2e2 f4e2|c2B2A2 f2a2f2|e6 e2f2a2|A2A2A2 A2B2c2|e2c2e2 f4e2|f2a2c2 e2d2B2|A6 A2e2c2|
A2A2A2 A2B2c2|e2c2e2 f4e2|c2B2A2 f2a2f2|e6 e2f2a2|A2A2A2 A2B2c2|e2c2e2 f4e2|f2a2c2 e2d2B2|A6 A2e2d2|
c4A2 c2e2B2|c4A2 A2c2e2|f4e2 f2a2f2|e6 e2f2a2|c4A2 c2e2B2|c4A2 A2c2e2|f2e2c2 e2d2B2|A6 A2e2d2|
c4A2 c2e2B2|c4A2 A2c2e2|f4e2 f2a2f2|e6 e2f2g2|a2c2c2 c2d2e2|f2B2B2 B4e2|f2a2c2 e2d2B2|A6 A2||
